static/img/menus/ico-door-open.svg

<svg width="16" height="16" viewBox="0 0 16 16" fill="none" xmlns="http://www.w3.org/2000/svg">
<g clip-path="url(#clip0_316_32)">
<rect x="3" y="1" width="10" height="12" fill="#D9D9D9"/>
<path d="M3 1L11 3V15L3.5 13L3 1Z" fill="#D9D9D9"/>
<path d="M4.00708 1.00885L9.89664 2.68173C10.9614 2.89813 11.4938 3.33923 11.4938 4.00506V12.9937M4.00708 1.00885H11.9929C12.1285 0.989496 12.2668 1.00198 12.3967 1.04533C12.5266 1.08868 12.6447 1.16169 12.7415 1.25859C12.8384 1.35549 12.9114 1.47362 12.9547 1.60362C12.998 1.73362 13.0105 1.87192 12.9912 2.00759V11.9949C13.0105 12.1306 12.998 12.2689 12.9547 12.3989C12.9114 12.5289 12.8384 12.647 12.7415 12.7439C12.6447 12.8408 12.5266 12.9139 12.3967 12.9572C12.2668 13.0005 12.1285 13.013 11.9929 12.9937H11.4938M4.00708 1.00885C3.87148 0.989496 3.73325 1.00198 3.60331 1.04533C3.47338 1.08868 3.35531 1.16169 3.25846 1.25859C3.16161 1.35549 3.08863 1.47362 3.04531 1.60362C3.00198 1.73362 2.9895 1.87192 3.00885 2.00759V11.8451C2.99777 12.1278 3.09489 12.404 3.28039 12.6174C3.46589 12.8308 3.7258 12.9654 4.00708 12.9937L10.4956 14.9911C10.6312 15.0105 10.7694 14.998 10.8993 14.9547C11.0293 14.9113 11.1473 14.8383 11.2442 14.7414C11.341 14.6445 11.414 14.5264 11.4573 14.3964C11.5007 14.2664 11.5132 14.1281 11.4938 13.9924V12.9937M9.49735 8V9.99747" stroke="#A9A9A9" stroke-linecap="round" stroke-linejoin="round"/>
</g>
<defs>
<clipPath id="clip0_316_32">
<rect width="16" height="16" fill="white"/>
</clipPath>
</defs>
</svg>

<svg xmlns="http://www.w3.org/2000/svg" width="16" height="16" fill="none" viewBox="0 0 16 16"><g clip-path="url(#a)"><path fill="#d9d9d9" d="M3 1h10v12H3z"/><path fill="#d9d9d9" d="m3 1 8 2v12l-7.5-2z"/><path stroke="#a9a9a9" stroke-linecap="round" stroke-linejoin="round" d="m4.007 1.009 5.89 1.673q1.597.324 1.597 1.323v8.989M4.007 1.009h7.986a.882.882 0 0 1 .998.999v9.987a.884.884 0 0 1-.998.999h-.5M4.008 1.009a.882.882 0 0 0-.998.999v9.837a1.11 1.11 0 0 0 .998 1.149l6.489 1.997a.882.882 0 0 0 .998-.999v-.998M9.497 8v1.997"/></g><defs><clipPath id="a"><path fill="#fff" d="M0 0h16v16H0z"/></clipPath></defs></svg>
